public/primaries/PhoneRotateClockwise.svg

<svg id="Layer_1" data-name="Layer 1" xmlns="http://www.w3.org/2000/svg" width="64" height="64" viewBox="0 0 64 64">
  <defs>
    <style>
      .cls-1 {
        fill-rule: evenodd;
      }
    </style>
  </defs>
  <title>Icons 300</title>
  <path class="cls-1" d="M56.8283,43.5715a.9969.9969,0,0,1-1.638,0l-6.9886-9.9483a1.0244,1.0244,0,0,1,.8188-1.6183h4.993a21.8666,21.8666,0,0,0-2.74-10.6251,2.0018,2.0018,0,0,1,3.4782-1.9826,25.8484,25.8484,0,0,1,3.2626,12.6077h4.9835a1.0245,1.0245,0,0,1,.819,1.6183ZM8.8412,20.46,15.83,30.4083a1.0245,1.0245,0,0,1-.8192,1.6182H10.0182a21.86,21.86,0,0,0,2.74,10.6252A2.0018,2.0018,0,0,1,9.28,44.6342,25.8442,25.8442,0,0,1,6.0168,32.0265H1.0333a1.0244,1.0244,0,0,1-.819-1.6182L7.2031,20.46A.997.997,0,0,1,8.8412,20.46ZM43.59,52.5724a4.9659,4.9659,0,0,1-5.4949,4.3969L20.3915,54.8639a5.0018,5.0018,0,0,1-4.3406-5.5665l4.3878-37.86a4.966,4.966,0,0,1,5.4952-4.3966L43.6377,9.1465a5.0019,5.0019,0,0,1,4.34,5.5665Zm-.7609-36.4516L25.1255,14.0153a.9932.9932,0,0,0-1.099.8793l-3.695,31.8818A1,1,0,0,0,21.2,47.89l17.7039,2.1055a.9934.9934,0,0,0,1.099-.8794l3.6948-31.8819A1,1,0,0,0,42.8293,16.1208Z"/>
</svg>

<svg id="Layer_1" data-name="Layer 1" xmlns="http://www.w3.org/2000/svg" width="64" height="64" viewBox="0 0 64 64"><defs><style>.cls-1{fill-rule:evenodd}</style></defs><title>Icons 300</title><path class="cls-1" d="M56.828 43.572a.997.997 0 0 1-1.638 0l-6.988-9.949a1.024 1.024 0 0 1 .819-1.618h4.993a21.867 21.867 0 0 0-2.74-10.625 2.002 2.002 0 0 1 3.478-1.983 25.848 25.848 0 0 1 3.262 12.608h4.984a1.024 1.024 0 0 1 .819 1.618zM8.841 20.46l6.989 9.948a1.024 1.024 0 0 1-.82 1.618h-4.992a21.86 21.86 0 0 0 2.74 10.626 2.002 2.002 0 0 1-3.478 1.982 25.844 25.844 0 0 1-3.263-12.608H1.033a1.024 1.024 0 0 1-.819-1.618l6.99-9.948a.997.997 0 0 1 1.637 0zM43.59 52.572a4.966 4.966 0 0 1-5.495 4.397l-17.703-2.105a5.002 5.002 0 0 1-4.341-5.567l4.388-37.86a4.966 4.966 0 0 1 5.495-4.396l17.704 2.105a5.002 5.002 0 0 1 4.34 5.567zm-.76-36.451l-17.704-2.106a.993.993 0 0 0-1.1.88l-3.695 31.881a1 1 0 0 0 .869 1.114l17.704 2.106a.993.993 0 0 0 1.099-.88l3.695-31.882a1 1 0 0 0-.869-1.113z"/></svg>
